X: 3697
T: Billy Pigg's
R: jig
M: 6/8
K: Dmajor
FDF AFD|ABc dAG|FDF AFD|EB,E GFE|
FDF ABc|dfe ~d3|cBA GEC|1 EDC D2E:|2 EDC D2A||
|:dcd AFD|~d3 ecA|=cBc GEC|~=c3 dBG|
dcd ABc|dfe ~d3|cBA GEC|1 EDC D2A:|2 EDC D2E||

